public/images/icons/48x48/coinmath_48_bicolore.svg

<svg height="48" viewBox="0 0 48 48" width="48" xmlns="http://www.w3.org/2000/svg"><g fill="none" fill-rule="nonzero"><g fill="#1e1169" stroke="#1e1169" stroke-width=".4" transform="translate(4.56 10.56)"><path d="m28.072321 11.0756655c-.2060201-.10301-.4635451-.051505-.6180602.10301l-16.2240803 16.2755853c-.154515.1545151-.20602.4120401-.10301.6180602s.3090301.3605351.5150502.3605351h16.2240802c.3090301 0 .5665552-.2575251.5665552-.5665552v-16.2755852c0-.2060201-.154515-.4120402-.3605351-.5150502zm-.7725752 16.2240803h-14.3183947l14.3183947-14.3183947z"/><path d="m32.6047625.05359192c-.2060201-.10301004-.4635452-.05150502-.6180602.10301003l-31.83010035 31.83010035c-.15451505.154515-.20602007.4120401-.10301003.6180602.10301003.2060201.3090301.3605351.51505016.3605351h31.83010032c.3090301 0 .5665552-.2575251.5665552-.5665552v-31.83010032c0-.20602006-.154515-.41204013-.3605351-.51505016zm-4.1719064 31.77859528v-1.6996655c0-.3090301-.2575251-.5665552-.5665552-.5665552s-.5665551.2575251-.5665551.5665552v1.6996655h-2.2662208v-1.6996655c0-.3090301-.2575251-.5665552-.5665552-.5665552s-.5665551.2575251-.5665551.5665552v1.6996655h-2.2662208v-1.6996655c0-.3090301-.2575251-.5665552-.5665552-.5665552s-.5665551.2575251-.5665551.5665552v1.6996655h-2.2662208v-1.6996655c0-.3090301-.2575251-.5665552-.5665552-.5665552s-.5665551.2575251-.5665551.5665552v1.6996655h-2.2662208v-1.6996655c0-.3090301-.2575251-.5665552-.5665552-.5665552s-.5665552.2575251-.5665552.5665552v1.6996655h-2.2662207v-1.6996655c0-.3090301-.2575251-.5665552-.5665552-.5665552s-.5665552.2575251-.5665552.5665552v1.6996655h-2.26622069v-1.6996655c0-.3090301-.25752509-.5665552-.56655519-.5665552s-.56655518.2575251-.56655518.5665552v1.6996655h-4.94448161l29.87290967-29.87290967v4.89297659h-1.6996655c-.3090301 0-.5665552.25752509-.5665552.56655519s.2575251.56655518.5665552.56655518h1.6996655v2.26622071h-1.6996655c-.3090301 0-.5665552.2575251-.5665552.5665552s.2575251.5665552.5665552.5665552h1.6996655v2.2662207h-1.6996655c-.3090301 0-.5665552.2575251-.5665552.5665552s.2575251.5665552.5665552.5665552h1.6996655v2.2662207h-1.6996655c-.3090301 0-.5665552.2575251-.5665552.5665552s.2575251.5665552.5665552.5665552h1.6996655v2.2662207h-1.6996655c-.3090301 0-.5665552.2575251-.5665552.5665552s.2575251.5665552.5665552.5665552h1.6996655v2.2662207h-1.6996655c-.3090301 0-.5665552.2575251-.5665552.5665552s.2575251.5665552.5665552.5665552h1.6996655v2.3177258h-1.6996655c-.3090301 0-.5665552.257525-.5665552.5665551s.2575251.5665552.5665552.5665552h1.6996655v3.3993311z"/></g><path d="m13.1201172 29.1513672c.086589.7291703-.0911436 1.3990855-.5332031 2.0097656-.4466169.6289094-1.0162726.9752601-1.7089844 1.0390625-.6881545.0820317-1.30110409-.1276016-1.8388672-.6289062-.54232042-.5013046-.85449178-1.1370405-.93652344-1.9072266-.08658897-.7519569.09342225-1.4218721.54003907-2.0097656.4420595-.5833363 1.025387-.9182939 1.74999997-1.0048828.7884154-.086589 1.4674451.2597617 2.0371094 1.0390625.4147156.5559923.6448565 1.0436177.6904297 1.4628906zm-4.32031251-4.1220703-.44433594 1.1347656-.44433594 1.1279297-.44433593 1.1347656-.4375 1.1210938-.45117188 1.1416015-.44433594 1.1347657c-.11849017.2962254-.19824198.5628243-.23925781.7998046-.04101583.2369804-.2164698.3281253-.52636719.2734375l-.109375-.0273437-.09570312-.0205078c-.33724127-.0638024-.43750069-.2335598-.30078125-.5092774.13671943-.2757175.24837196-.5571274.33496093-.8442382l1.39453126-5.1953126.36230468-1.2988281.34863282-1.2988281c.11393286-.4238302.17659499-.766763.18798828-1.0288086.01139328-.2620456.19710106-.2267269.5571289.105957l.19824219.1845703.20507813.1914063.19140624.1845703.19824219.1777344c.30989739.2916681.4204106.5115552.33154297.659668-.08886763.1481127-.21305259.4318012-.37255859.8510742zm-2.69335938.3828125c.08203166.7337276-.09797956 1.4104786-.54003906 2.0302734-.4420595.6152375-1.01399389.9615882-1.71582031 1.0390625-.67448254.0774744-1.28515352-.132159-1.83203125-.6289062-.53320579-.5013046-.84537715-1.1415977-.93652344-1.9208985-.07747435-.7428422.10253687-1.4059215.54003906-1.9892578.43750219-.5833362 1.01627244-.9160152 1.73632813-.9980469.79753003-.0911463 1.48111694.2438113 2.05078125 1.0048828.41927293.5696644.65169248 1.0572897.69726562 1.4628907zm5.84472659 4.149414c-.0227866-.2005218-.086588-.3759758-.1914063-.5263672-.2050791-.2369803-.4785139-.3372397-.8203125-.3007812-.3372412.0364585-.6015615.148111-.7929687.3349609-.20052186.1868499-.28483091.4033191-.25292971.6494141.0319012.2552096.18001171.4580071.44433591.6083984.2779962.159506.5263661.2210289.7451172.1845703.2962255-.0364585.5240878-.1503896.6835938-.3417968.145834-.1822926.2073568-.3850901.1845703-.6083985zm-7.64941409-3.9853515c-.04557314-.3828144-.15950429-.6835927-.34179687-.9023438s-.41015489-.3121746-.68359375-.2802734c-.31901201.0410158-.5742178.1891263-.765625.4443359-.20052184.2643243-.28027365.5582666-.23925781.881836.03645851.3509132.19140488.6334624.46484374.8476562.28711082.2415377.5423166.3395185.765625.2939453.29166813-.0546877.50813732-.2096341.64941407-.4648437.1276048-.2369804.17773451-.5104151.15039062-.8203125zm37.46191409 4.8066406c.3782571.6425813.8225886 1.2783172 1.3330078 1.9072266.3964863-.724613.7200508-1.4287076.9707031-2.1123047.1002609-.2597669.4466116-.3680015 1.0390625-.3247071.5924509.0432945.8750001.3657197.8476563.9672852.0045573.2050792-.0296221.4420559-.1025391.7109375-.0820317.3053401-.2255849.6813129-.4306641 1.1279297-.2050791.4466168-.4397773.9023414-.7041015 1.3671875.3736998.3417986.7405581.6334623 1.1005859.875.0774744.0546878.1583655.1093747.2426758.1640625s.1583656.1162106.222168.1845703c.1139328.1367194.1276046.2882479.0410156.4545898-.086589.166342-.2141919.3224277-.3828125.4682618-.1686206.145834-.3497712.2734369-.543457.3828125-.1936859.1093755-.3406571.1708983-.440918.1845703-.1868499.0364585-.3714184.0102543-.5537109-.0786133-.1822926-.0888676-.3463535-.1834305-.4921876-.2836914-.1822925-.1321621-.3417961-.2620436-.4785156-.3896485-.1640633.2050792-.2985021.3600256-.4033203.4648438-.1276048.1276048-.2734367.2506504-.4375.3691406s-.3395173.1777344-.5263672.1777344c-.1048182 0-.2631825-.0353187-.4750976-.105957-.2119152-.0706384-.4135733-.1652013-.6049805-.2836914-.1914072-.1184902-.344075-.2506503-.4580078-.3964844-.1139329-.1458341-.125326-.2916659-.0341797-.4375.0501305-.0820317.1127926-.1572262.1879883-.225586.0751957-.0683597.1469723-.1367184.215332-.2050781.2962255-.2916681.6038396-.6471333.9228516-1.0664062-.3463559-.405601-.6596666-.8111959-.9399414-1.2167969-.2802749-.405601-.4887689-.7496731-.6254883-1.0322266-.0455732-.1048182-.0911456-.2141921-.1367188-.328125-.0455731-.1139328-.0751952-.2324212-.0888671-.3554687-.0683598-.6744826.168617-1.0629878.7109374-1.1655274.5423205-.1025395.8841139-.0353202 1.0253907.2016602zm-20.9404297-24.66308594c-.0227866-.0957036-.0341797-.17545541-.0341797-.23925781-.0045573-.06835972.0045572-.13216116.0273437-.19140625.0045574-.05013046.0387367-.10253879.1025391-.15722656.0455732-.04101583.1184891-.08203105.21875-.12304688.3645852-.13216212.7815732-.15494835 1.2509766-.06835937.2005218.03645851.3736972.18456901.5195312.44433593.086589.15950601.1549477.33040274.2050781.51269532.0592451.1914072.1093748.38053292.1503907.56738281.0273439.1276048.0592446.31900914.0957031.57421875.0045573.05924509.0102539.11507135.0170898.16748047.006836.05240911.0148112.10367813.0239258.15380859.4420595-.05013046.8408186-.06835944 1.1962891-.0546875.3281266.02278657.6083973.08658802.8408203.19140625.159506.07747435.3007806.23242072.4238281.46484375.1139329.22330841.1891274.46484245.225586.72460938.0410158.28711081.0364585.51953036-.0136719.69726562-.0501305.20963647-.1481113.32584624-.2939453.34863282-.0410159.00455731-.1139318.00683593-.21875.00683593-.0501305 0-.1344395-.00455724-.2529297-.01367187-.2643243-.02278657-.5480128-.02620451-.8510742-.01025391s-.6072576.04899064-.9125977.09912109c0 .32356938-.0068359.64599448-.0205078.96728518s-.0478513.6391586-.1025391.9536133c-.0820316.3509132-.1845697.6220693-.3076172.8134765-.1093755.1503914-.2871081.2666012-.5332031.3486328-.2369803.0683598-.4899075.1025391-.758789.1025391-.2871108 0-.5126945-.0341793-.6767579-.1025391-.1959645-.0774743-.2985025-.1936841-.3076171-.3486328 0-.0592451.0068358-.1298824.0205078-.211914.0136719-.0501305.0341795-.1344395.0615234-.2529297.0683597-.2734389.1139322-.5742171.1367188-.9023438.0227865-.3281266.0387369-.6608056.0478515-.9980468-.7701861.1412767-1.4651661.3281238-2.0849609.5605468-.0820317.0364585-.1572262.0592448-.2255859.0683594-.086589.0227866-.1503905.0250652-.1914063.0068359-.0592451-.0045573-.1184893-.0319008-.1777344-.0820312-.0501304-.0410158-.0979815-.1093745-.1435547-.2050781-.1868499-.3281267-.2734375-.7360002-.2597656-1.22363285.0045573-.20507915.1253243-.39420486.3623047-.56738281.1276048-.09570361.2871084-.19140577.4785156-.28710938.1276048-.05924509.3076161-.13443965.5400391-.22558594.1230475-.04101583.3053373-.10253865.546875-.18457031.1640633-.04557314.3486318-.09570285.5537109-.15039062.0820317-.02278657.1686194-.04443349.2597657-.06494141.0911462-.02050791.1777339-.04215483.2597656-.0649414.0136719-.00455732.0296223-.00683594.0478515-.00683594-.0319012-.75195689-.1139316-1.43098656-.2460937-2.03710938z" fill="#28dcf0"/></g></svg>

<svg xmlns="http://www.w3.org/2000/svg" width="48" height="48" viewBox="0 0 48 48">
  <g fill="none" fill-rule="evenodd">
    <g fill="#1E1169" fill-rule="nonzero" stroke="#1E1169" stroke-width=".4" transform="translate(4.56 10.56)">
      <path d="M28.072321,11.0756655 C27.8663009,10.9726555 27.6087759,11.0241605 27.4542608,11.1786755 L11.2301805,27.4542608 C11.0756655,27.6087759 11.0241605,27.8663009 11.1271705,28.072321 C11.2301805,28.2783411 11.4362006,28.4328561 11.6422207,28.4328561 L27.8663009,28.4328561 C28.175331,28.4328561 28.4328561,28.175331 28.4328561,27.8663009 L28.4328561,11.5907157 C28.4328561,11.3846956 28.2783411,11.1786755 28.072321,11.0756655 Z M27.2997458,27.2997458 L12.9813511,27.2997458 L27.2997458,12.9813511 L27.2997458,27.2997458 Z"/>
      <path d="M32.6047625,0.0535919153 C32.3987424,-0.0494181182 32.1412173,0.00208689855 31.9867023,0.156601949 L0.156601949,31.9867023 C0.00208689855,32.1412173 -0.0494181182,32.3987424 0.0535919153,32.6047625 C0.156601949,32.8107826 0.362622016,32.9652976 0.568642082,32.9652976 L32.3987424,32.9652976 C32.7077725,32.9652976 32.9652976,32.7077725 32.9652976,32.3987424 L32.9652976,0.568642082 C32.9652976,0.362622016 32.8107826,0.156601949 32.6047625,0.0535919153 Z M28.4328561,31.8321872 L28.4328561,30.1325217 C28.4328561,29.8234916 28.175331,29.5659665 27.8663009,29.5659665 C27.5572708,29.5659665 27.2997458,29.8234916 27.2997458,30.1325217 L27.2997458,31.8321872 L25.033525,31.8321872 L25.033525,30.1325217 C25.033525,29.8234916 24.7759999,29.5659665 24.4669698,29.5659665 C24.1579397,29.5659665 23.9004147,29.8234916 23.9004147,30.1325217 L23.9004147,31.8321872 L21.6341939,31.8321872 L21.6341939,30.1325217 C21.6341939,29.8234916 21.3766688,29.5659665 21.0676387,29.5659665 C20.7586086,29.5659665 20.5010836,29.8234916 20.5010836,30.1325217 L20.5010836,31.8321872 L18.2348628,31.8321872 L18.2348628,30.1325217 C18.2348628,29.8234916 17.9773377,29.5659665 17.6683076,29.5659665 C17.3592775,29.5659665 17.1017525,29.8234916 17.1017525,30.1325217 L17.1017525,31.8321872 L14.8355317,31.8321872 L14.8355317,30.1325217 C14.8355317,29.8234916 14.5780066,29.5659665 14.2689765,29.5659665 C13.9599464,29.5659665 13.7024213,29.8234916 13.7024213,30.1325217 L13.7024213,31.8321872 L11.4362006,31.8321872 L11.4362006,30.1325217 C11.4362006,29.8234916 11.1786755,29.5659665 10.8696454,29.5659665 C10.5606153,29.5659665 10.3030902,29.8234916 10.3030902,30.1325217 L10.3030902,31.8321872 L8.03686951,31.8321872 L8.03686951,30.1325217 C8.03686951,29.8234916 7.77934442,29.5659665 7.47031432,29.5659665 C7.16128422,29.5659665 6.90375914,29.8234916 6.90375914,30.1325217 L6.90375914,31.8321872 L1.95927753,31.8321872 L31.8321872,1.95927753 L31.8321872,6.85225412 L30.1325217,6.85225412 C29.8234916,6.85225412 29.5659665,7.10977921 29.5659665,7.41880931 C29.5659665,7.72783941 29.8234916,7.98536449 30.1325217,7.98536449 L31.8321872,7.98536449 L31.8321872,10.2515852 L30.1325217,10.2515852 C29.8234916,10.2515852 29.5659665,10.5091103 29.5659665,10.8181404 C29.5659665,11.1271705 29.8234916,11.3846956 30.1325217,11.3846956 L31.8321872,11.3846956 L31.8321872,13.6509163 L30.1325217,13.6509163 C29.8234916,13.6509163 29.5659665,13.9084414 29.5659665,14.2174715 C29.5659665,14.5265016 29.8234916,14.7840267 30.1325217,14.7840267 L31.8321872,14.7840267 L31.8321872,17.0502474 L30.1325217,17.0502474 C29.8234916,17.0502474 29.5659665,17.3077725 29.5659665,17.6168026 C29.5659665,17.9258327 29.8234916,18.1833578 30.1325217,18.1833578 L31.8321872,18.1833578 L31.8321872,20.4495785 L30.1325217,20.4495785 C29.8234916,20.4495785 29.5659665,20.7071036 29.5659665,21.0161337 C29.5659665,21.3251638 29.8234916,21.5826889 30.1325217,21.5826889 L31.8321872,21.5826889 L31.8321872,23.8489096 L30.1325217,23.8489096 C29.8234916,23.8489096 29.5659665,24.1064347 29.5659665,24.4154648 C29.5659665,24.7244949 29.8234916,24.98202 30.1325217,24.98202 L31.8321872,24.98202 L31.8321872,27.2997458 L30.1325217,27.2997458 C29.8234916,27.2997458 29.5659665,27.5572708 29.5659665,27.8663009 C29.5659665,28.175331 29.8234916,28.4328561 30.1325217,28.4328561 L31.8321872,28.4328561 L31.8321872,31.8321872 L28.4328561,31.8321872 Z"/>
    </g>
    <path fill="#28DCF0" fill-rule="nonzero" d="M13.1201172 29.1513672C13.2067062 29.8805375 13.0289736 30.5504527 12.5869141 31.1611328 12.1402972 31.7900422 11.5706415 32.1363929 10.8779297 32.2001953 10.1897752 32.282227 9.57682561 32.0725937 9.0390625 31.5712891 8.49674208 31.0699845 8.18457072 30.4342486 8.10253906 29.6640625 8.01595009 28.9121056 8.19596131 28.2421904 8.64257813 27.6542969 9.08463763 27.0709606 9.66796513 26.736003 10.3925781 26.6494141 11.1809935 26.5628251 11.8600232 26.9091758 12.4296875 27.6884766 12.8444031 28.2444689 13.074544 28.7320943 13.1201172 29.1513672zM8.79980469 25.0292969L8.35546875 26.1640625 7.91113281 27.2919922 7.46679688 28.4267578 7.02929688 29.5478516 6.578125 30.6894531 6.13378906 31.8242188C6.01529889 32.1204442 5.93554708 32.3870431 5.89453125 32.6240234 5.85351542 32.8610038 5.67806145 32.9521487 5.36816406 32.8974609L5.25878906 32.8701172 5.16308594 32.8496094C4.82584467 32.785807 4.72558525 32.6160496 4.86230469 32.340332 4.99902412 32.0646145 5.11067665 31.7832046 5.19726562 31.4960938L6.59179688 26.3007812 6.95410156 25.0019531 7.30273438 23.703125C7.41666724 23.2792948 7.47932937 22.936362 7.49072266 22.6743164 7.50211594 22.4122708 7.68782372 22.4475895 8.04785156 22.7802734L8.24609375 22.9648437 8.45117188 23.15625 8.64257812 23.3408203 8.84082031 23.5185547C9.1507177 23.8102228 9.26123091 24.0301099 9.17236328 24.1782227 9.08349565 24.3263354 8.95931069 24.6100239 8.79980469 25.0292969zM6.10644531 25.4121094C6.18847697 26.145837 6.00846575 26.822588 5.56640625 27.4423828 5.12434675 28.0576203 4.55241236 28.403971 3.85058594 28.4814453 3.1761034 28.5589197 2.56543242 28.3492863 2.01855469 27.8525391 1.4853489 27.3512345 1.17317754 26.7109414 1.08203125 25.9316406 1.0045569 25.1887984 1.18456812 24.5257191 1.62207031 23.9423828 2.0595725 23.3590466 2.63834275 23.0263676 3.35839844 22.9443359 4.15592847 22.8531896 4.83951538 23.1881472 5.40917969 23.9492187 5.82845262 24.5188831 6.06087217 25.0065084 6.10644531 25.4121094zM11.9511719 29.5615234C11.9283853 29.3610016 11.8645839 29.1855476 11.7597656 29.0351562 11.5546865 28.7981759 11.2812517 28.6979165 10.9394531 28.734375 10.6022119 28.7708335 10.3378916 28.882486 10.1464844 29.0693359 9.94596254 29.2561858 9.86165349 29.472655 9.89355469 29.71875 9.92545589 29.9739596 10.0735664 30.1767571 10.3378906 30.3271484 10.6158868 30.4866544 10.8642567 30.5481773 11.0830078 30.5117187 11.3792333 30.4752602 11.6070956 30.3613291 11.7666016 30.1699219 11.9124356 29.9876293 11.9739584 29.7848318 11.9511719 29.5615234zM4.30175781 25.5761719C4.25618467 25.1933575 4.14225352 24.8925792 3.95996094 24.6738281 3.77766836 24.455077 3.54980605 24.3616535 3.27636719 24.3935547 2.95735518 24.4345705 2.70214939 24.582681 2.51074219 24.8378906 2.31022035 25.1022149 2.23046854 25.3961572 2.27148438 25.7197266 2.30794289 26.0706398 2.46288926 26.353189 2.73632812 26.5673828 3.02343894 26.8089205 3.27864472 26.9069013 3.50195312 26.8613281 3.79362125 26.8066404 4.01009044 26.651694 4.15136719 26.3964844 4.27897199 26.159504 4.3291017 25.8860693 4.30175781 25.5761719zM41.7636719 30.3828125C42.141929 31.0253938 42.5862605 31.6611297 43.0966797 32.2900391 43.493166 31.5654261 43.8167305 30.8613315 44.0673828 30.1777344 44.1676437 29.9179675 44.5139944 29.8097329 45.1064453 29.8530273 45.6988962 29.8963218 45.9814454 30.218747 45.9541016 30.8203125 45.9586589 31.0253917 45.9244795 31.2623684 45.8515625 31.53125 45.7695308 31.8365901 45.6259776 32.2125629 45.4208984 32.6591797 45.2158193 33.1057965 44.9811211 33.5615211 44.7167969 34.0263672 45.0904967 34.3681658 45.457355 34.6598295 45.8173828 34.9013672 45.8948572 34.956055 45.9757483 35.0107419 46.0600586 35.0654297 46.1443689 35.1201175 46.2184242 35.1816403 46.2822266 35.25 46.3961594 35.3867194 46.4098312 35.5382479 46.3232422 35.7045898 46.2366532 35.8709318 46.1090503 36.0270175 45.9404297 36.1728516 45.7718091 36.3186856 45.5906585 36.4462885 45.3969727 36.5556641 45.2032868 36.6650396 45.0563156 36.7265624 44.9560547 36.7402344 44.7692048 36.7766929 44.5846363 36.7504887 44.4023438 36.6616211 44.2200512 36.5727535 44.0559903 36.4781906 43.9101562 36.3779297 43.7278637 36.2457676 43.5683601 36.1158861 43.4316406 35.9882812 43.2675773 36.1933604 43.1331385 36.3483068 43.0283203 36.453125 42.9007155 36.5807298 42.7548836 36.7037754 42.5908203 36.8222656 42.426757 36.9407558 42.251303 37 42.0644531 37 41.9596349 37 41.8012706 36.9646813 41.5893555 36.894043 41.3774403 36.8234046 41.1757822 36.7288417 40.984375 36.6103516 40.7929678 36.4918614 40.6403 36.3597013 40.5263672 36.2138672 40.4124343 36.0680331 40.4010412 35.9222013 40.4921875 35.7763672 40.542318 35.6943355 40.6049801 35.619141 40.6801758 35.5507812 40.7553715 35.4824215 40.8271481 35.4140628 40.8955078 35.3457031 41.1917333 35.054035 41.4993474 34.6985698 41.8183594 34.2792969 41.4720035 33.8736959 41.1586928 33.468101 40.878418 33.0625 40.5981431 32.656899 40.3896491 32.3128269 40.2529297 32.0302734 40.2073565 31.9254552 40.1617841 31.8160813 40.1162109 31.7021484 40.0706378 31.5882156 40.0410157 31.4697272 40.0273438 31.3466797 39.958984 30.6721971 40.1959608 30.2836919 40.7382812 30.1811523 41.2806017 30.0786128 41.6223951 30.1458321 41.7636719 30.3828125zM20.8232422 5.71972656C20.8004556 5.62402296 20.7890625 5.54427115 20.7890625 5.48046875 20.7845052 5.41210903 20.7936197 5.34830759 20.8164062 5.2890625 20.8209636 5.23893204 20.8551429 5.18652371 20.9189453 5.13183594 20.9645185 5.09082011 21.0374344 5.04980489 21.1376953 5.00878906 21.5022805 4.87662694 21.9192685 4.85384071 22.3886719 4.94042969 22.5891937 4.9768882 22.7623691 5.1249987 22.9082031 5.38476562 22.9947921 5.54427163 23.0631508 5.71516836 23.1132812 5.89746094 23.1725263 6.08886814 23.222656 6.27799386 23.2636719 6.46484375 23.2910158 6.59244855 23.3229165 6.78385289 23.359375 7.0390625 23.3639323 7.09830759 23.3696289 7.15413385 23.3764648 7.20654297 23.3833008 7.25895208 23.391276 7.3102211 23.4003906 7.36035156 23.8424501 7.3102211 24.2412092 7.29199212 24.5966797 7.30566406 24.9248063 7.32845063 25.205077 7.39225208 25.4375 7.49707031 25.597006 7.57454466 25.7382806 7.72949103 25.8613281 7.96191406 25.975261 8.18522247 26.0504555 8.42675651 26.0869141 8.68652344 26.1279299 8.97363425 26.1233726 9.2060538 26.0732422 9.38378906 26.0231117 9.59342553 25.9251309 9.7096353 25.7792969 9.73242188 25.738281 9.73697919 25.6653651 9.73925781 25.5605469 9.73925781 25.5104164 9.73925781 25.4261074 9.73470057 25.3076172 9.72558594 25.0432929 9.70279937 24.7596044 9.69938143 24.456543 9.71533203 24.1534816 9.73128263 23.8492854 9.76432267 23.5439453 9.81445312 23.5439453 10.1380225 23.5371094 10.4604476 23.5234375 10.7817383 23.5097656 11.103029 23.4755862 11.4208969 23.4208984 11.7353516 23.3388668 12.0862648 23.2363287 12.3574209 23.1132812 12.5488281 23.0039057 12.6992195 22.8261731 12.8154293 22.5800781 12.8974609 22.3430978 12.9658207 22.0901706 13 21.8212891 13 21.5341783 13 21.3085946 12.9658207 21.1445312 12.8974609 20.9485667 12.8199866 20.8460287 12.7037768 20.8369141 12.5488281 20.8369141 12.489583 20.8437499 12.4189457 20.8574219 12.3369141 20.8710938 12.2867836 20.8916014 12.2024746 20.9189453 12.0839844 20.987305 11.8105455 21.0328775 11.5097673 21.0556641 11.1816406 21.0784506 10.853514 21.094401 10.520835 21.1035156 10.1835938 20.3333295 10.3248705 19.6383495 10.5117176 19.0185547 10.7441406 18.936523 10.7805991 18.8613285 10.8033854 18.7929688 10.8125 18.7063798 10.8352866 18.6425783 10.8375652 18.6015625 10.8193359 18.5423174 10.8147786 18.4830732 10.7874351 18.4238281 10.7373047 18.3736977 10.6962889 18.3258466 10.6279302 18.2802734 10.5322266 18.0934235 10.2040999 18.0068359 9.7962264 18.0205078 9.30859375 18.0250651 9.1035146 18.1458321 8.91438889 18.3828125 8.74121094 18.5104173 8.64550733 18.6699209 8.54980517 18.8613281 8.45410156 18.9889329 8.39485647 19.1689442 8.31966191 19.4013672 8.22851562 19.5244147 8.18749979 19.7067045 8.12597697 19.9482422 8.04394531 20.1123055 7.99837217 20.296874 7.94824246 20.5019531 7.89355469 20.5839848 7.87076812 20.6705725 7.8491212 20.7617188 7.82861328 20.852865 7.80810537 20.9394527 7.78645845 21.0214844 7.76367188 21.0351563 7.75911456 21.0511067 7.75683594 21.0693359 7.75683594 21.0374347 7.00487905 20.9554043 6.32584938 20.8232422 5.71972656z"/>
  </g>
</svg>
